!!!OTL@@DE: Der kleine Tambour
!!!COM: Pohlenz, August
!!!ODT: 1826
!!!OMD: Marschm&auml;ssig und feurig
!!!LYR: Gerhard, Wilhelm
!!!LDT: 1821///-1826///
!!!OCL: Erk, Ludwig
!!!GCO: Deutscher Liederschatz, Band 1
**kern	**kern	**kern
*staff3	*staff2	*staff1
*>[A,B,B]	*>[A,B,B]	*>[A,B,B]
*>norep[A,B]	*>norep[A,B]	*>norep[A,B]
*>A	*>A	*>A
*Ipiano	*Ipiano	*Ivox
*clefF4	*clefG2	*clefG2
*k[b-e-]	*k[b-e-]	*k[b-e-]
*B-:	*B-:	*B-:
*met(C)	*met(C)	*met(C)
*M4/4	*M4/4	*M4/4
*MM112	*MM112	*MM112
8.F\L	8.f/L	4r
16F\Jk	16f/Jk	.
=1	=1	=1
4BB-'\ 4D'\ 4F'\ 4B-'\	8d/ 8b-/L	1r
.	16r	.
.	16a/Jk	.
4BB-'\ 4D'\ 4F'\ 4B-'\	8d/ 8b-/L	.
.	16r	.
.	16a/Jk	.
4BB-'\ 4D'\ 4F'\ 4B-'\	8d/ 8b-/L	.
.	16r	.
.	16a/Jk	.
4BB-'\ 4D'\ 4F'\ 4B-'\	8d/ 8b-/L	.
.	16r	.
.	16cc/Jk	.
=2	=2	=2
*	*^	*
4BB-'\ 4D'\ 4F'\ 4B-'\	8.dd/L	4f\	1r
.	16b-/Jk	.	.
4B-\ [4d\	2.ryy	[4f^\ [4b-^\ [4ff^\	.
8B-\ 8d\]	.	8f\] 8b-\] 8ff\]	.
16r	.	16r	.
16B-\ 16d\LK	.	16dd\ 16ff\LK	.
8.c\ 8.e-\	.	8.cc\ 8.ee-\	.
16d\ 16f\Jk	.	16b-\ 16dd\Jk	.
*	*v	*v	*
=3	=3	=3
4e-\ 4g\	8.cc\L	1r
.	16bn\k	.
4d\ 4f\	8.cc\	.
.	16dd\Jk	.
4c\ 4e-\	8.ee-\L	.
.	16g\k	.
4F\ 4c\ 4e-\	8.a\	.
.	16cc\Jk	.
=4	=4	=4
4B-\ 4d\	4f/ 4b-/	2r
4BB-\ 4D\ 4F\	(16B-/LL	.
.	16A/	.
.	16B-/	.
.	16A/JJ	.
4BB-\ 4D\ 4F\	4B-'/)	4r
*>B	*>B	*>B
4r	8.f/L	8f/
.	.	8f/
.	16f/Jk	.
=5	=5	=5
4BB-'\ 4F'\ 4B-'\	8d/ 8b-/L	8.b-/L
.	16r	.
.	16a/Jk	16a/Jk
4BB-'\ 4F'\ 4B-'\	8d/ 8b-/L	8.b-/L
.	16r	.
.	16a/Jk	16a/Jk
4BB-'\ 4F'\ 4B-'\	8d/ 8b-/L	8.b-/L
.	16r	.
.	16a/Jk	16a/Jk
4BB-'\ 4F'\ 4B-'\	8d/ 8b-/L	8.b-\L
.	16r	.
.	16e-/ 16cc/Jk	16cc\Jk
=6	=6	=6
4BB-'\ 4F'\ 4B-'\	4f/ 4dd/	4dd\
(16BB-/LL	(16B-/LL	4r
16AA/	16A/	.
16BB-/	16B-/	.
16AA/JJ	16A/JJ	.
4BB-'/)	4B-'/)	4r
4r	8.g\ 8.ee-\L	8ee-\
.	.	8dd\
.	16f\ 16dd\Jk	.
=7	=7	=7
4AA/ 4F/	8.e-/ 8.cc/L	8.cc\L
.	16d/ 16bn/Jk	16bn\Jk
4FF/ 4F/	8.e-/ 8.cc/L	8.cc\L
.	16d/ 16b/Jk	16b\Jk
4AA/ 4F/	8.e-/ 8.cc/L	8.cc\L
.	16g/ 16ee-/Jk	16ee-\Jk
4FF/ 4F/	8.f/ 8.dd/L	8.dd\L
.	16e-/ 16cc/Jk	16cc\Jk
=8	=8	=8
*^	*^	*
2F/	4BB-\	(4.b-/	2d\	(4.b-/
.	4FF\	.	.	.
.	.	16a/LL	.	16a/LL
.	.	16g/JJ	.	16g/JJ
*	*	*v	*v	*
2ryy	4BB-\ 4F\	4d/ 4f/)	4f/)
.	4r	8.f/L	8f/
.	.	.	8f/
.	.	16f/Jk	.
*v	*v	*	*
=9	=9	=9
4BB-\ 4F\ 4B-\	8.d/ 8.b-/L	8.b-/L
.	16c/ 16a/k	16a/Jk
4BB-\ 4F\ 4B-\	8.d/ 8.b-/	8.b-/L
.	16c/ 16a/Jk	16a/Jk
4BB-\ 4F\ 4B-\	8.d/ 8.b-/L	8.b-/L
.	16c/ 16a/k	16a/Jk
4BB-\ 4F\ 4B-\	8.d/ 8.b-/	8.b-\L
.	16e-/ 16cc/Jk	16cc\Jk
=10	=10	=10
4r	2f/ 2dd/	2dd\
2BB-^\ 2B-^\	.	.
.	4g\ 4een\	4een\
4BBn\ 4Bn\	8a-\ 8ff\L	8ff\
.	8a-\ 8ff\J	8ff\
=11	=11	=11
4C\ 4c\	4an\ 4ff\	8.ff\L
.	.	16een\Jk
4C\ 4c\	4a\ 4ff\	8.dd\L
.	.	16cc\Jk
4C\ 4B-\ 4c\	4g\ 4een\	8.cc\L
.	.	16b-\Jk
4C\ 4B-\ 4c\	4g\ 4ee\	8.a/L
.	.	16g/Jk
=12	=12	=12
4F\ 4A\ 4c\	4f\ 4a\ 4ff\	2f/
(16F\LL	(16f/LL	.
16En\	16en/	.
16F\	16f/	.
16E\JJ	16e/JJ	.
4F'\)	4f'/)	4r
4r	8.f/L	8f/
.	.	8f/
.	16f/Jk	.
=13	=13	=13
4F\	(4f/	4f/
*	*^	*
4F\ 4A\ 4e-\	4cc/	2f\	4cc\
4F\ 4A\ 4e-\	4dd/	.	4dd^\
4F\ 4A\ 4e-\	4cc/)	4f\	4cc\
*	*v	*v	*
=14	=14	=14
4B-\ 4d\	4f/ 4cc/	(8cc\L
.	.	8b-\J)
4F\	8.d/ 8.f/ 8.b-/L	4b-\
.	16f/ 16b-/Jk	.
4B-\ 4d\	4f/ 4b-/	4r
4F\	4f/ 4b-/	8b-\
.	.	8b-\
=15	=15	=15
4A'\ 4e-'\	4f'/ 4dd'/	4dd'\
4F'\	4f'/ 4cc'/	4cc'\
4B-'\ 4d'\	4f'/ 4b-'/	4b-'\
4G'\ 4B-'\ 4d-'\	4en'/	4en'/
=16	=16	=16
4F'\ 4A'\ 4c'\	4f/	2f/
4F'\ 4A'\ 4c'\	8.f/L	.
.	16f/Jk	.
4F'\ 4A'\ 4c'\	4f/	4r
4D'\ 4A'\ 4c'\	4d/ 4f#/	8f#/
.	.	8f#/
=17	=17	=17
4G'\ 4B-'\	4d'/ 4g'/	4g'/
4D'\ 4A'\ 4c'\	4d'/ 4f#'/	4d'/
4G'\ 4B-'\	4d'/ 4g'/	4g'/
4D'\ 4A'\ 4c'\	4d'/ 4f#'/	4d'/
=18	=18	=18
4G'\ 4B-'\	4d'/ 4g'/	(4.g/
4G'\ 4B-'\	4d'/ 4g'/	.
.	.	8a/)
4E-\ 4G\	4c#/ 4b-/	4b-\
*^	*^	*
8A/L	4E-\	(8a/L	4c#\	8a/
8B-/J	.	8g/J)	.	8g/
*v	*v	*	*	*
*	*v	*v	*
=19	=19	=19
4D'\ 4B-'\	4d'/ 4g'/ 4dd'/	4dd\
4D'\ 4B-'\	4d'/ 4g'/ 4dd'/	4dd\
4D'\ 4A'\ 4cn'\	4d'/ 4f#'/	4d/
4D'\ 4A'\ 4c'\	4d'/ 4f#'/	4d/
=20	=20	=20
4G'\ 4B-'\	[2d/ [2g/	2g/
4G'\ 4B-'\	.	.
4G'\ 4B-'\	8.d/] 8.g/L]	8.r
.	16g/k	16g/
4r	8.g/	8.g/
.	16g-/Jk	16g-/
=21	=21	=21
4AA'/ 4F'/	4c'/ 4e-'/ 4f'/	4f'/
4FF'/ 4F'/	4c'/ 4e-'/ 4f'/	4f'/
4AA'/ 4F'/	4c'/ 4e-'/ 4f'/	4f'/
4FF'/ 4F'/	4c'/ 4e-'/ 4f'/	4f'/
=22	=22	=22
4BB-'/ 4F'/	2B-/ 2d/ 2b-/	2f/ 2b-/
4FF'/ 4F'/	.	.
4BB-'/ 4F'/	8.r	4r
.	16B-/ 16d/ 16f/LK	.
4FF'/ 4F'/	8.A/ 8.c/ 8.f/	8a/
.	.	8b-\
.	16B-/ 16d/ 16f/Jk	.
=23	=23	=23
4AA'/ 4F'/	4c'/ 4e-'/	4.cc\
4FF'/ 4F'/	4c'/ 4e-'/	.
.	.	8cc\
4AA'/ 4F'/	(8d/ 8f/L	8dd\L
.	8c/) 8e-/	8cc\J
4FF'/ 4F'/	(8B-/ 8d/	8b-\L
.	8c/) 8e-/J	8cc\J
=24	=24	=24
*^	*	*
2F/	(4BB-\	4d/ (4f/	(4dd\
.	4FF\)	&(4c/&) 4e-/)	4cc\)
2ryy	4BB-\ 4F\	8.B-/ 8.d/L	&(8.b-\&)
.	.	16f/k	16f/
.	4r	8.f/	8.f/
.	.	16f/Jk	16f/
*v	*v	*	*
=25	=25	=25
4AA'/ 4F'/	4c'/ 4e-'/ 4f'/	4f/
4FF'/ 4F'/	4c'/ 4e-'/ 4f'/	4f/
4AA'/ 4F'/	4c'/ 4e-'/ 4f'/	4f/
4FF'/ 4F'/	4c'/ 4e-'/ 4f'/	4f/
=26	=26	=26
4BB-'/ 4F'/	2B-/ 2d/ 2f/	2f/ 2b-/
4FF'/ 4F'/	.	.
4BB-'/ 4F'/	8.r	8r
.	.	8b-\
.	16d/ 16b-/LK	.
4GG'/ 4G'/	8.c/ 8.a/	8.a/
.	16d/ 16b-/Jk	16b-\
=27	=27	=27
*^	*^	*
2G/	4E-\	(4.cc/	4g\	(4.cc\
.	4C\	.	4e-\	.
.	.	16dd/LL	.	16dd\LL
.	.	16cc/JJ	.	16cc\JJ
*	*	*v	*v	*
2ryy	4F\	4d/ 4b-/)	4b-\)
.	4FF/	4c/ 4a/	4a/
*v	*v	*	*
=28	=28	=28
4BB-/ 4F/	4d/ 4b-/	2b-\
4BB-/	8.B-/L	.
.	16B-/Jk	.
4BB-/	4B-/	2r
4r	8.dd\ 8.ff\L	.
.	16cc\ 16ee-\Jk	.
=29	=29	=29
*	*	*k[]
16BB-/LL	4b-\ 4dd\	1r
16AA/	.	.
16BB-/	.	.
16AA/JJ	.	.
16BB-/LL	8.b-\ 8.dd\L	.
16AA/	.	.
16BB-/	.	.
16AA/JJ	16b-\ 16dd\Jk	.
16BB-/LL	4b-\ 4dd\	.
16AA/	.	.
16BB-/	.	.
16AA/JJ	.	.
16BB-/LL	8.dd\ 8.ff\L	.
16AA/	.	.
16BB-/	.	.
16AA/JJ	16cc\ 16ee-\Jk	.
=30	=30	=30
16BB-/LL	4b-\ 4dd\	1r
16AA/	.	.
16BB-/	.	.
16AA/JJ	.	.
16BB-/LL	8.b-\ 8.dd\L	.
16AA/	.	.
16BB-/	.	.
16AA/JJ	16b-\ 16dd\Jk	.
16BB-/LL	4b-\ 4dd\	.
16AA/	.	.
16BB-/	.	.
16AA/JJ	.	.
12BB-/L	12ddd\L	.
12C/	12ccc\	.
12D/J	12bb-\J	.
=31	=31	=31
*^	*	*
4r	2E-\	12aa\L	1r
.	.	12gg\	.
.	.	12ff\J	.
4G/ 4c/	.	16ee-\LL	.
.	.	16dd\	.
.	.	16cc\	.
.	.	16b-\JJ	.
4r	2F\	12a\L	.
.	.	12gg\	.
.	.	12ff\J	.
4c/ 4e-/ 4f/	.	12a\L	.
.	.	12gg\	.
.	.	12ff\J	.
*v	*v	*	*
=32	=32	=32
4B-\ 4d\ 4f\	4b-\	2.r
8.BB-\ 8.B-\L	8.d/ 8.f/ 8.b-/L	.
16BB-\ 16B-\Jk	16d/ 16f/ 16b-/Jk	.
4BB-\ 4B-\	4d/ 4f/ 4b-/	.
=	=	=
*-	*-	*-
!!!ENC: Craig Stuart Sapp
!!!END: 2004/06/27/
!!!EFL: 147/651
